packages/core/assets/Icons/arrow_up_left.svg

<svg viewBox="0 0 20 20" fill="none" xmlns="http://www.w3.org/2000/svg">
<path d="M6.99996 6.66669L14.4166 14.0834C14.5694 14.2361 14.6458 14.4306 14.6458 14.6667C14.6458 14.9028 14.5694 15.0972 14.4166 15.25C14.2638 15.4028 14.0694 15.4792 13.8333 15.4792C13.5972 15.4792 13.4027 15.4028 13.25 15.25L5.83329 7.83335L5.83329 14.1667C5.83329 14.4028 5.75343 14.6007 5.59371 14.7604C5.43399 14.9202 5.23607 15 4.99996 15C4.76385 15 4.56593 14.9202 4.40621 14.7604C4.24649 14.6007 4.16663 14.4028 4.16663 14.1667L4.16663 5.83335C4.16663 5.59724 4.24649 5.39933 4.40621 5.2396C4.56593 5.07988 4.76385 5.00002 4.99996 5.00002L13.3333 5.00002C13.5694 5.00002 13.7673 5.07988 13.927 5.2396C14.0868 5.39933 14.1666 5.59724 14.1666 5.83335C14.1666 6.06947 14.0868 6.26738 13.927 6.4271C13.7673 6.58683 13.5694 6.66669 13.3333 6.66669L6.99996 6.66669Z" fill="currentColor"/>
</svg>

<svg xmlns="http://www.w3.org/2000/svg" width="20" height="20" fill="none" viewBox="0 0 20 20">
  <path fill="#201F1F" d="m7 6.667 7.417 7.416a.79.79 0 0 1 .229.584.79.79 0 0 1-.23.583.79.79 0 0 1-.583.23.79.79 0 0 1-.583-.23L5.833 7.833v6.334c0 .236-.08.434-.24.593A.806.806 0 0 1 5 15a.806.806 0 0 1-.594-.24.806.806 0 0 1-.24-.593V5.833c0-.236.08-.434.24-.593.16-.16.358-.24.594-.24h8.333c.236 0 .434.08.594.24.16.16.24.357.24.593s-.08.434-.24.594a.806.806 0 0 1-.594.24H7Z"/>
</svg>
